icon-themes/breeze_svg/cmd/lc_superscript.svg

<svg viewBox="0 0 24 24" xmlns="http://www.w3.org/2000/svg"><path d="m10.910156 5-3.3144529 9.59375-.1230469.40625-1.4726562 4h1.6582031l1.625-4.4375h5.4335939l1.625 4.4375h1.658203l-1.472656-4-.123047-.40625-3.314453-9.59375h-.214844-1.75zm1.105469 1.9375 2.179687 6.34375h-4.3906245z" fill="#4d4d4d"/><path d="m16 3v2 1 2 1h1 2c1.108 0 2-.892 2-2 0-.81094-.481275-1.5018962-1.171875-1.8164062.10595-.2058501.171875-.4352838.171875-.6835938 0-.831-.669-1.5-1.5-1.5h-1.5zm1 1h1.5c.277 0 .5.223.5.5s-.223.5-.5.5h-1.5zm0 2h1.5.5c.554 0 1 .446 1 1s-.446 1-1 1h-2z" fill="#1d99f3"/></svg>

<svg xmlns="http://www.w3.org/2000/svg" viewBox="0 0 24 24">
 <path 
     style="fill:#4d4d4d" 
     d="M 10.910156 5 L 7.5957031 14.59375 L 7.4726562 15 L 6 19 L 7.6582031 19 L 9.2832031 14.5625 L 14.716797 14.5625 L 16.341797 19 L 18 19 L 16.527344 15 L 16.404297 14.59375 L 13.089844 5 L 12.875 5 L 11.125 5 L 10.910156 5 z M 12.015625 6.9375 L 14.195312 13.28125 L 9.8046875 13.28125 L 12.015625 6.9375 z "
     />
 <path 
     style="fill:#1d99f3" 
     d="M 16 3 L 16 5 L 16 6 L 16 8 L 16 9 L 17 9 L 19 9 C 20.108 9 21 8.108 21 7 C 21 6.18906 20.518725 5.4981038 19.828125 5.1835938 C 19.934075 4.9777437 20 4.74831 20 4.5 C 20 3.669 19.331 3 18.5 3 L 17 3 L 16 3 z M 17 4 L 18.5 4 C 18.777 4 19 4.223 19 4.5 C 19 4.777 18.777 5 18.5 5 L 17 5 L 17 4 z M 17 6 L 18.5 6 L 19 6 C 19.554 6 20 6.446 20 7 C 20 7.554 19.554 8 19 8 L 17 8 L 17 6 z "
     />
 </svg>
